contributed-vectors/adobe_capture.svg

<svg xmlns="http://www.w3.org/2000/svg" width="192" height="192" fill="none"><g clip-path="url(#a)"><path fill="#56595B" fill-rule="evenodd" d="M30 19h133c5.52 0 10 4.48 10 10v133c0 5.52-4.48 10-10 10H30c-5.52 0-10-4.48-10-10V29c0-5.52 4.48-10 10-10Z" clip-rule="evenodd"/><path fill="#fff" d="M60 95.5c0-11.39 9.24-20.63 20.63-20.63 7.97 0 14.87 4.49 18.28 11.05l-7.64 3.95c-1.94-3.82-5.89-6.36-10.65-6.36-6.77 0-11.92 5.22-11.92 11.99 0 6.77 5.16 11.99 11.92 11.99 4.76 0 8.71-2.55 10.65-6.37l7.64 3.95a20.555 20.555 0 0 1-18.28 11.06C69.24 116.13 60 106.89 60 95.5ZM133 108.63v6.96c-.87.34-1.87.54-2.68.54-3.21 0-5.76-1.34-7.3-3.75-2.08 2.34-5.49 3.75-9.44 3.75-5.96 0-9.85-3.01-9.85-7.7 0-4.76 3.28-7.84 8.44-7.84h9.17v-2.01c0-2.35-1.87-3.82-4.55-3.82-2.61 0-4.49 1.27-4.49 3.42h-8.57c0-6.03 5.22-9.92 13.06-9.92 7.84 0 13.13 4.36 13.13 11.18v5.69c0 2.21.67 3.48 1.67 3.48H133v.02Zm-11.65-2.88h-6.23c-1.67 0-2.74.94-2.74 2.35 0 1.4 1.41 2.28 3.62 2.28 3-.01 5.01-1.82 5.35-4.63Z"/></g><defs><clipPath id="a"><path fill="#fff" d="M0 0h192v192H0z"/></clipPath></defs></svg>

<svg width="192" height="192" viewBox="0 0 192 192" fill="none" xmlns="http://www.w3.org/2000/svg">
<g clip-path="url(#clip0)">
<path fill-rule="evenodd" clip-rule="evenodd" d="M30 19H163C168.52 19 173 23.48 173 29V162C173 167.52 168.52 172 163 172H30C24.48 172 20 167.52 20 162V29C20 23.48 24.48 19 30 19Z" fill="#56595B"/>
<path d="M60 95.5C60 84.11 69.24 74.87 80.63 74.87C88.6 74.87 95.5 79.36 98.91 85.92L91.27 89.87C89.33 86.05 85.38 83.51 80.62 83.51C73.85 83.51 68.7 88.73 68.7 95.5C68.7 102.27 73.86 107.49 80.62 107.49C85.38 107.49 89.33 104.94 91.27 101.12L98.91 105.07C95.5 111.64 88.6 116.13 80.63 116.13C69.24 116.13 60 106.89 60 95.5Z" fill="white"/>
<path d="M133 108.63V115.59C132.13 115.93 131.13 116.13 130.32 116.13C127.11 116.13 124.56 114.79 123.02 112.38C120.94 114.72 117.53 116.13 113.58 116.13C107.62 116.13 103.73 113.12 103.73 108.43C103.73 103.67 107.01 100.59 112.17 100.59H121.34V98.58C121.34 96.23 119.47 94.76 116.79 94.76C114.18 94.76 112.3 96.03 112.3 98.18H103.73C103.73 92.15 108.95 88.26 116.79 88.26C124.63 88.26 129.92 92.62 129.92 99.44V105.13C129.92 107.34 130.59 108.61 131.59 108.61H133V108.63ZM121.35 105.75H115.12C113.45 105.75 112.38 106.69 112.38 108.1C112.38 109.5 113.79 110.38 116 110.38C119 110.37 121.01 108.56 121.35 105.75Z" fill="white"/>
</g>
<defs>
<clipPath id="clip0">
<rect width="192" height="192" fill="white"/>
</clipPath>
</defs>
</svg>
